assets/logos/gucci.svg

<svg width="110" height="26" viewBox="0 0 110 26" fill="none" xmlns="http://www.w3.org/2000/svg">
<g clip-path="url(#clip0_1_4402)">
<path d="M99.0875 7.91889L98.8831 7.98353C98.0882 6.34028 96.9527 5.03218 95.4764 4.05921C94.0229 3.08623 92.1947 2.59974 89.9916 2.59974C88.7652 2.59974 87.5956 2.84837 86.4828 3.34565C85.3699 3.82136 84.3934 4.50244 83.553 5.3889C82.7354 6.25376 82.0768 7.30241 81.5771 8.53485C81.0775 9.76729 80.8277 11.1294 80.8277 12.6213C80.8277 14.1132 81.0775 15.4754 81.5771 16.7078C82.0768 17.9402 82.7354 18.9997 83.553 19.8862C84.3934 20.751 85.3699 21.4213 86.4828 21.897C87.5956 22.3726 88.7653 22.6105 89.9917 22.6105C92.1719 22.6105 93.9434 22.2861 95.3061 21.6375C96.6915 20.9672 97.8611 19.951 98.815 18.5889L99.0194 18.6535L98.9515 20.7292C98.4292 21.2481 97.8273 21.713 97.146 22.1238C96.4647 22.513 95.7266 22.8481 94.9317 23.1292C94.1595 23.3887 93.3532 23.5832 92.5129 23.713C91.6726 23.8645 90.8323 23.9402 89.992 23.9402C88.2432 23.9402 86.5739 23.6699 84.9841 23.1294C83.3943 22.5888 81.9976 21.8321 80.7939 20.8591C79.5902 19.8645 78.6363 18.6753 77.9323 17.2916C77.2282 15.8862 76.8762 14.3294 76.8762 12.6213C76.8762 10.9132 77.2282 9.36725 77.9323 7.9835C78.6363 6.57807 79.5902 5.37807 80.7939 4.38351C81.9976 3.3889 83.3943 2.63214 84.9841 2.11323C86.5739 1.57267 88.2432 1.3024 89.992 1.3024C90.8323 1.3024 91.6726 1.36726 92.5129 1.49699C93.3532 1.62672 94.1594 1.83213 94.9316 2.11323C95.7265 2.37268 96.4647 2.70783 97.146 3.11865C97.8273 3.50784 98.4292 3.96189 98.9515 4.4808L99.0875 7.91889ZM24.0174 14.1135C23.7677 14.2215 23.5292 14.3621 23.302 14.5353C23.0747 14.7082 22.9611 14.946 22.9611 15.2489V19.238C21.871 20.7299 20.4742 21.8867 18.7708 22.7083C17.0675 23.5299 15.1825 23.9407 13.1157 23.9407C11.367 23.9407 9.69771 23.6705 8.10791 23.1299C6.51813 22.5894 5.12138 21.8326 3.91767 20.8596C2.71398 19.8651 1.7601 18.6759 1.05604 17.2921C0.352012 15.8867 0 14.33 0 12.6218C0 10.9137 0.352012 9.36778 1.05604 7.98403C1.7601 6.5786 2.71398 5.3786 3.91767 4.38404C5.12138 3.38943 6.51813 2.63268 8.10791 2.11379C9.69769 1.57321 11.367 1.30293 13.1157 1.30293C13.956 1.30293 14.7964 1.36779 15.6367 1.49752C16.477 1.62725 17.2833 1.83266 18.0555 2.11376C18.8503 2.37322 19.5885 2.70836 20.2698 3.11918C20.9511 3.50837 21.553 3.96242 22.0754 4.48133L22.2119 7.91914L22.0075 7.98378C21.2126 6.34051 20.077 5.0324 18.6008 4.05944C17.1472 3.08645 15.319 2.59996 13.116 2.59996C11.8896 2.59996 10.72 2.84861 9.60714 3.3459C8.49427 3.82159 7.51767 4.50267 6.67734 5.38913C5.85972 6.254 5.20111 7.30266 4.7015 8.5351C4.20182 9.76752 3.95198 11.1297 3.95198 12.6216C3.95198 14.0918 4.19045 15.4432 4.6674 16.6756C5.16707 17.908 5.8257 18.9675 6.6433 19.854C7.4836 20.7188 8.46017 21.3999 9.57304 21.8972C10.6859 22.3729 11.8669 22.6107 13.116 22.6107C15.478 22.6107 17.4993 22.1783 19.1799 21.3134V15.2486C19.1799 14.946 19.0551 14.7082 18.8054 14.535C18.5781 14.3622 18.351 14.2216 18.124 14.1132L18.1552 13.9513C18.2686 13.971 18.473 13.9926 18.7684 14.0159C19.0638 14.0357 19.3704 14.0572 19.6882 14.0805H22.6181C22.8906 14.0608 23.1518 14.0392 23.4017 14.0159C23.6513 13.9961 23.8443 13.9746 23.9806 13.9513L24.0174 14.1135ZM48.6924 1.98378C48.4652 2.09176 48.2381 2.23236 48.0111 2.40559C47.7839 2.57843 47.659 2.90275 47.6366 3.37856C47.6158 3.89747 47.5932 4.55693 47.5687 5.35694C47.5687 6.13533 47.5583 7.0218 47.5375 8.01635C47.5375 9.01098 47.5271 10.0921 47.5063 11.2596V14.8921C47.4856 16.2975 47.3038 17.4974 46.9611 18.4921C46.6204 19.4866 46.1662 20.319 45.5984 20.9893C45.0534 21.6596 44.4402 22.1893 43.7588 22.5785C43.1002 22.9677 42.4415 23.2596 41.7829 23.4542C41.147 23.6705 40.5451 23.8003 39.9774 23.8434C39.4096 23.9082 38.9667 23.9407 38.6488 23.9407C37.3542 23.9407 36.1051 23.7785 34.9014 23.4542C33.6977 23.1516 32.6416 22.6543 31.7332 21.9623C30.8247 21.2704 30.098 20.3731 29.5529 19.2704C29.0078 18.1677 28.7353 16.8272 28.7353 15.2488V11.584V8.21095C28.7353 7.1731 28.7249 6.24338 28.7041 5.42178C28.7041 4.57853 28.6937 3.89744 28.673 3.37853C28.6522 2.90284 28.5274 2.57852 28.2984 2.40556C28.0712 2.23272 27.8441 2.09212 27.6171 1.98375L27.6483 1.82179C27.7617 1.84156 27.9435 1.86311 28.1936 1.88643C28.4661 1.9062 28.7386 1.92775 29.0112 1.95107C29.3066 1.95107 29.5905 1.96095 29.8629 1.98073H31.0893C31.3618 1.96095 31.6457 1.95107 31.9409 1.95107C32.2363 1.93129 32.5088 1.90975 32.7585 1.88643C33.031 1.86665 33.224 1.8451 33.3374 1.82179L33.3686 1.98375C33.1189 2.09173 32.8804 2.23233 32.6532 2.40556C32.4488 2.57841 32.3352 2.90273 32.3123 3.37853C32.2916 3.89744 32.2689 4.57853 32.2444 5.42178V15.2488C32.2444 17.6055 32.8236 19.3461 33.9818 20.4704C35.1401 21.5947 36.8548 22.1568 39.1259 22.1568C39.7845 22.1568 40.534 22.0811 41.3744 21.9296C42.2147 21.7568 42.9982 21.4108 43.725 20.8918C44.4744 20.3729 45.099 19.6378 45.5987 18.6864C46.121 17.7351 46.3822 16.4702 46.3822 14.8919C46.3822 13.1837 46.3718 11.7243 46.351 10.5135C46.351 9.28107 46.3407 8.23242 46.3199 7.36754C46.3199 6.48106 46.3095 5.7243 46.2887 5.09726C46.268 4.47026 46.2453 3.89729 46.2208 3.37836C46.2 2.90267 46.0752 2.57835 45.8462 2.4054C45.619 2.23256 45.3919 2.09194 45.1649 1.98356L45.1961 1.82162C45.4458 1.86471 45.7297 1.90802 46.0477 1.95154C46.3656 1.97132 46.6608 1.9812 46.9335 1.9812C47.1832 1.9812 47.4671 1.97132 47.7851 1.95154C48.1258 1.90845 48.4211 1.86514 48.6709 1.82162L48.6924 1.98378ZM73.4125 7.91889L73.2081 7.98353C72.4132 6.34028 71.2776 5.03218 69.8014 4.05921C68.3479 3.08623 66.5196 2.59974 64.3166 2.59974C63.0902 2.59974 61.9206 2.84837 60.8077 3.34565C59.6948 3.82136 58.7183 4.50244 57.878 5.3889C57.0604 6.25376 56.4017 7.30241 55.9021 8.53485C55.4024 9.76731 55.1526 11.1295 55.1526 12.6213C55.1526 14.1132 55.4025 15.4753 55.9021 16.7078C56.4018 17.9402 57.0604 18.9997 57.878 19.8862C58.7183 20.751 59.6949 21.4213 60.8077 21.897C61.9206 22.3726 63.0902 22.6105 64.3167 22.6105C66.4969 22.6105 68.2684 22.2861 69.6311 21.6375C71.0165 20.9672 72.1861 19.951 73.14 18.5889L73.3443 18.6535L73.2765 20.7292C72.7541 21.2481 72.1522 21.713 71.4709 22.1237C70.7895 22.5129 70.0514 22.8481 69.2565 23.1292C68.4843 23.3886 67.6781 23.5832 66.8377 23.7129C65.9974 23.8644 65.1571 23.9402 64.3168 23.9402C62.568 23.9402 60.8987 23.6699 59.309 23.1293C57.7192 22.5888 56.3224 21.832 55.1187 20.8591C53.915 19.8645 52.9611 18.6753 52.2571 17.2915C51.5531 15.8861 51.201 14.3294 51.201 12.6213C51.201 10.9132 51.5531 9.36723 52.2571 7.98347C52.9611 6.57804 53.915 5.37804 55.1187 4.38348C56.3224 3.38887 57.7192 2.63211 59.309 2.1132C60.8988 1.57265 62.568 1.30237 64.3168 1.30237C65.1571 1.30237 65.9974 1.36723 66.8378 1.49696C67.6781 1.62669 68.4843 1.8321 69.2565 2.1132C70.0514 2.37266 70.7895 2.7078 71.4709 3.11862C72.1522 3.50781 72.754 3.96186 73.2764 4.48077L73.4125 7.91889ZM109.355 23.3891C109.242 23.3693 109.049 23.3478 108.776 23.3245C108.527 23.3245 108.254 23.3146 107.959 23.2948C107.663 23.2948 107.38 23.2849 107.107 23.2651H105.063C104.791 23.2849 104.518 23.3065 104.246 23.3298C103.996 23.3496 103.803 23.3711 103.667 23.3944L103.636 23.2645C103.863 23.1565 104.09 23.0159 104.317 22.8427C104.544 22.6698 104.669 22.3455 104.691 21.8697C104.712 21.3508 104.723 20.8102 104.723 20.2481C104.743 19.6859 104.754 19.0481 104.754 18.3345V15.9021V12.6265V9.35083V6.88596C104.754 6.17245 104.743 5.54542 104.723 5.00486C104.723 4.44271 104.712 3.90217 104.691 3.38326C104.671 2.90757 104.546 2.58325 104.317 2.41029C104.09 2.2157 103.863 2.06441 103.636 1.95641L103.667 1.82652C103.803 1.86961 103.996 1.90204 104.246 1.92381C104.518 1.92381 104.791 1.9337 105.063 1.95347C105.359 1.97325 105.643 1.98314 105.915 1.98314H107.107C107.38 1.96336 107.664 1.95347 107.959 1.95347C108.254 1.9337 108.527 1.91215 108.776 1.88883C109.049 1.86906 109.242 1.84751 109.355 1.82419L109.387 1.95415C109.137 2.06212 108.898 2.21341 108.671 2.408C108.467 2.58084 108.353 2.90516 108.33 3.38096C108.31 3.89988 108.287 4.44041 108.262 5.00257V20.2458C108.283 20.8079 108.306 21.3485 108.33 21.8674C108.351 22.3431 108.465 22.6674 108.671 22.8404C108.898 23.0132 109.137 23.1538 109.387 23.2622L109.355 23.3891Z" fill="white"/>
</g>
<defs>
<clipPath id="clip0_1_4402">
<rect width="109.387" height="25.2431" fill="white"/>
</clipPath>
</defs>
</svg>

<svg xmlns="http://www.w3.org/2000/svg" width="110" height="26" fill="none" viewBox="0 0 110 26"><g clip-path="url(#clip0_1_4402)"><path fill="#fff" d="m99.088 7.919-.205.065q-1.192-2.466-3.407-3.925-2.18-1.46-5.484-1.46a8.5 8.5 0 0 0-3.51.747 8.7 8.7 0 0 0-2.929 2.043q-1.227 1.297-1.976 3.146-.75 1.848-.75 4.086t.75 4.087 1.976 3.178a8.95 8.95 0 0 0 2.93 2.011 8.8 8.8 0 0 0 3.509.713q3.27 0 5.314-.973 2.079-1.005 3.509-3.048l.204.065-.068 2.075a9.5 9.5 0 0 1-1.805 1.395q-1.022.583-2.214 1.005-1.159.39-2.42.584-1.26.227-2.52.227a15.5 15.5 0 0 1-5.008-.81q-2.385-.812-4.19-2.27a11.1 11.1 0 0 1-2.862-3.568q-1.056-2.11-1.056-4.67 0-2.563 1.056-4.638a11 11 0 0 1 2.862-3.6q1.805-1.493 4.19-2.27 2.386-.812 5.008-.812 1.26 0 2.52.195t2.42.616q1.192.39 2.214 1.006a8.6 8.6 0 0 1 1.805 1.362zm-75.07 6.195q-.375.161-.716.421a.85.85 0 0 0-.34.714v3.989q-1.637 2.238-4.191 3.47-2.556 1.233-5.655 1.233-2.623 0-5.008-.811-2.385-.81-4.19-2.27a11.1 11.1 0 0 1-2.862-3.568Q0 15.184 0 12.622t1.056-4.638a11 11 0 0 1 2.862-3.6q1.805-1.492 4.19-2.27 2.385-.81 5.008-.811 1.26 0 2.52.195t2.42.616q1.191.39 2.214 1.005 1.022.584 1.805 1.362l.137 3.438-.204.065Q20.815 5.519 18.6 4.059 16.42 2.6 13.116 2.6a8.5 8.5 0 0 0-3.509.746 8.7 8.7 0 0 0-2.93 2.043Q5.451 6.687 4.702 8.535q-.75 1.85-.75 4.087 0 2.205.715 4.054.75 1.848 1.976 3.178a9.4 9.4 0 0 0 2.93 2.043 8.9 8.9 0 0 0 3.543.714q3.543 0 6.064-1.298V15.25a.82.82 0 0 0-.375-.714 4 4 0 0 0-.681-.422l.031-.162q.17.03.613.065.444.03.92.065h2.93q.41-.03.784-.065.374-.03.579-.065zm24.674-12.13a4 4 0 0 0-.68.422q-.342.258-.375.973-.032.777-.068 1.978 0 1.167-.032 2.66 0 1.491-.03 3.243v3.632q-.032 2.108-.546 3.6-.51 1.492-1.363 2.497a6.6 6.6 0 0 1-1.84 1.59 8.8 8.8 0 0 1-1.975.875 7.4 7.4 0 0 1-1.806.39q-.85.097-1.328.097-1.942 0-3.748-.487-1.805-.453-3.168-1.492-1.362-1.038-2.18-2.692t-.818-4.021V8.21q0-1.557-.03-2.79 0-1.264-.032-2.042-.03-.714-.375-.973a4 4 0 0 0-.68-.422l.03-.162q.171.03.546.064.409.03.817.065.444 0 .852.03h1.226q.41-.03.852-.03.443-.03.817-.065.41-.029.58-.064l.03.162q-.375.161-.715.422-.306.259-.34.973-.032.778-.069 2.043v9.827q0 3.534 1.738 5.221t5.144 1.687q.988 0 2.248-.227a6.1 6.1 0 0 0 2.351-1.038q1.125-.779 1.874-2.206.783-1.426.783-3.794 0-2.562-.031-4.378 0-1.85-.031-3.146 0-1.33-.031-2.27-.032-.941-.068-1.72-.031-.713-.375-.973a4 4 0 0 0-.681-.421l.031-.162q.375.064.852.13.477.03.886.03.374 0 .851-.03.51-.066.886-.13zm24.72 5.935-.204.065q-1.192-2.466-3.407-3.925-2.18-1.46-5.484-1.46a8.5 8.5 0 0 0-3.51.747 8.7 8.7 0 0 0-2.929 2.043q-1.226 1.297-1.976 3.146t-.75 4.086.75 4.087 1.976 3.178a8.95 8.95 0 0 0 2.93 2.011 8.8 8.8 0 0 0 3.509.713q3.27 0 5.314-.973 2.078-1.005 3.509-3.048l.204.065-.067 2.075a9.5 9.5 0 0 1-1.806 1.395q-1.022.584-2.215 1.005a14.6 14.6 0 0 1-2.418.584q-1.26.227-2.521.227-2.623 0-5.008-.81-2.385-.812-4.19-2.27a11.1 11.1 0 0 1-2.862-3.568q-1.056-2.11-1.056-4.67 0-2.563 1.056-4.639a11 11 0 0 1 2.862-3.6q1.805-1.49 4.19-2.27 2.385-.81 5.008-.81 1.26 0 2.52.194 1.261.195 2.42.616 1.191.39 2.214 1.006 1.022.584 1.805 1.362zm35.943 15.47a8 8 0 0 0-.579-.064q-.374 0-.817-.03-.443 0-.852-.03h-2.044q-.409.03-.817.065-.375.03-.579.064l-.031-.13q.34-.161.681-.421.34-.26.374-.973.032-.78.032-1.622.03-.843.031-1.914V6.886a51 51 0 0 0-.031-1.881q0-.843-.032-1.622-.03-.713-.374-.973a3 3 0 0 0-.681-.454l.031-.13q.204.066.579.098.409 0 .817.03.444.03.852.03h1.192q.41-.03.852-.03.443-.03.817-.065a5 5 0 0 0 .579-.065l.032.13q-.375.162-.716.454-.306.26-.341.973-.03.779-.068 1.622v15.243q.032.844.068 1.621.032.714.341.973.34.26.716.422z"/></g><defs><clipPath id="clip0_1_4402"><path fill="#fff" d="M0 0h109.387v25.243H0z"/></clipPath></defs></svg>
